svg/settings.svg

<svg xmlns="http://www.w3.org/2000/svg" viewBox="0 0 32 32" enable-background="new 0 0 32 32"><path d="M 12.3125 4.53125 L 10.46875 5.28125 L 11.625 8.15625 C 10.172045 8.9708031 8.9708031 10.172045 8.15625 11.625 L 5.28125 10.46875 L 4.53125 12.3125 L 7.375 13.46875 C 7.1404613 14.269509 7 15.124932 7 16 C 7 16.875068 7.1404613 17.730491 7.375 18.53125 L 4.53125 19.6875 L 5.28125 21.53125 L 8.15625 20.375 C 8.9692617 21.825206 10.179164 23.02705 11.625 23.84375 L 10.46875 26.71875 L 12.3125 27.46875 L 13.46875 24.625 C 14.269784 24.861394 15.122974 25 16 25 C 16.875068 25 17.730491 24.859539 18.53125 24.625 L 19.6875 27.46875 L 21.53125 26.71875 L 20.375 23.84375 C 21.827955 23.029197 23.029197 21.827955 23.84375 20.375 L 26.71875 21.53125 L 27.46875 19.6875 L 24.625 18.53125 C 24.859539 17.730491 25 16.875068 25 16 C 25 15.124932 24.859539 14.269509 24.625 13.46875 L 27.46875 12.3125 L 26.71875 10.46875 L 23.84375 11.625 C 23.029197 10.172045 21.827955 8.9708031 20.375 8.15625 L 21.53125 5.28125 L 19.6875 4.53125 L 18.53125 7.375 C 17.730491 7.1404613 16.875068 7 16 7 C 15.124932 7 14.269509 7.1404613 13.46875 7.375 L 12.3125 4.53125 z M 16 9 C 19.877838 9 23 12.122162 23 16 C 23 19.877838 19.877838 23 16 23 C 12.122162 23 9 19.877838 9 16 C 9 12.122162 12.122162 9 16 9 z M 16 12 C 13.802706 12 12 13.802706 12 16 C 12 18.197294 13.802706 20 16 20 C 18.197294 20 20 18.197294 20 16 C 20 13.802706 18.197294 12 16 12 z M 16 14 C 17.116414 14 18 14.883586 18 16 C 18 17.116414 17.116414 18 16 18 C 14.883586 18 14 17.116414 14 16 C 14 14.883586 14.883586 14 16 14 z"/></svg>

<svg xmlns="http://www.w3.org/2000/svg" viewBox="0 0 32 32"><path d="M12.313 4.53l-1.844.75 1.155 2.876c-1.453.815-2.654 2.016-3.47 3.47l-2.874-1.157-.75 1.842 2.845 1.157C7.14 14.27 7 15.124 7 16c0 .875.14 1.73.375 2.53L4.53 19.688l.75 1.844 2.876-1.155c.813 1.45 2.023 2.652 3.47 3.47l-1.157 2.874 1.842.75 1.157-2.845c.8.236 1.653.375 2.53.375.875 0 1.73-.14 2.53-.375l1.157 2.844 1.844-.75-1.155-2.876c1.453-.815 2.654-2.016 3.47-3.47l2.874 1.157.75-1.843-2.845-1.156c.235-.8.375-1.655.375-2.53 0-.875-.14-1.73-.375-2.53l2.844-1.158-.75-1.843-2.876 1.155c-.815-1.453-2.016-2.654-3.47-3.47l1.157-2.874-1.843-.75-1.156 2.845C17.73 7.14 16.876 7 16 7c-.875 0-1.73.14-2.53.375L12.31 4.53zM16 9c3.878 0 7 3.122 7 7s-3.122 7-7 7-7-3.122-7-7 3.122-7 7-7zm0 3c-2.197 0-4 1.803-4 4s1.803 4 4 4 4-1.803 4-4-1.803-4-4-4zm0 2c1.116 0 2 .884 2 2s-.884 2-2 2-2-.884-2-2 .884-2 2-2z"/></svg>
